;FLAVOR:Marlin
;TIME:1661
;Filament used: 4.76735m
;Layer height: 0.2
;MINX:12.481
;MINY:94.6
;MINZ:0.3
;MAXX:225.062
;MAXY:140.4
;MAXZ:3.9
;Generated with Cura_SteamEngine 5.4.0
M140 S62
M105
M190 S62
M104 S225
M105
M109 S225
M82 ;absolute extrusion mode
G28 ;Home
G1 Z15.0 F6000 ;Move the platform down 15mm
;Prime the extruder
G92 E0
G1 F200 E3
G92 E0
G92 E0
G92 E0
G1 F2700 E-0.5
;LAYER_COUNT:19
;LAYER:0
M107
G0 F3060 X29.139 Y95.473 Z0.3
;TYPE:SKIRT
G1 F2700 E0
G1 F4500 X30.029 Y95.241 E0.0468
G1 X31.279 Y94.974 E0.11185
G1 X32.458 Y94.795 E0.17253
G1 X33.466 Y94.688 E0.22412
G1 X34.306 Y94.633 E0.26695
G1 X35.971 Y94.6 E0.3517
G1 X201.654 Y94.601 E8.78298
G1 X202.622 Y94.613 E8.83224
G1 X203.755 Y94.66 E8.88995
G1 X205.005 Y94.786 E8.95388
G1 X206.116 Y94.951 E9.01103
G1 X207.242 Y95.176 E9.06947
G1 X208.129 Y95.396 E9.11597
G1 X208.991 Y95.647 E9.16166
G1 X210.415 Y96.139 E9.23833
G1 X211.563 Y96.623 E9.30173
G1 X212.596 Y97.119 E9.36004
G1 X213.381 Y97.54 E9.40537
G1 X214.469 Y98.188 E9.46981
G1 X215.521 Y98.905 E9.5346
G1 X216.428 Y99.59 E9.59244
G1 X217.318 Y100.336 E9.65153
G1 X218.147 Y101.104 E9.70904
G1 X218.933 Y101.907 E9.76622
G1 X219.554 Y102.606 E9.8138
G1 X220.424 Y103.685 E9.88434
G1 X221.043 Y104.542 E9.93813
G1 X221.609 Y105.406 E9.99069
G1 X222.169 Y106.359 E10.04694
G1 X222.749 Y107.46 E10.11027
G1 X223.269 Y108.616 E10.17477
G1 X223.67 Y109.634 E10.23045
G1 X224.039 Y110.728 E10.28921
G1 X224.343 Y111.8 E10.34591
G1 X224.555 Y112.701 E10.39301
G1 X224.805 Y114.069 E10.46378
G1 X224.923 Y114.967 E10.50987
G1 X225.019 Y116.069 E10.56616
G1 X225.062 Y117.296 E10.62864
G1 X225.046 Y118.378 E10.6837
G1 X224.981 Y119.45 E10.73836
G1 X224.844 Y120.662 E10.80043
G1 X224.657 Y121.796 E10.85891
G1 X224.406 Y122.949 E10.91896
G1 X224.1 Y124.07 E10.97809
G1 X223.7 Y125.282 E11.04304
G1 X223.35 Y126.191 E11.09261
G1 X222.882 Y127.253 E11.15167
G1 X222.29 Y128.425 E11.21848
G1 X221.834 Y129.224 E11.2653
G1 X221.175 Y130.27 E11.32821
G1 X220.418 Y131.323 E11.39421
G1 X219.721 Y132.197 E11.45109
G1 X218.943 Y133.081 E11.51102
G1 X218.165 Y133.877 E11.56766
G1 X217.319 Y134.663 E11.62642
G1 X216.434 Y135.405 E11.68519
G1 X215.55 Y136.075 E11.74164
G1 X214.815 Y136.583 E11.78711
G1 X213.876 Y137.178 E11.84368
G1 X212.656 Y137.851 E11.91458
G1 X211.995 Y138.178 E11.95211
G1 X210.702 Y138.747 E12.024
G1 X209.459 Y139.201 E12.09134
G1 X208.405 Y139.527 E12.14748
G1 X207.515 Y139.759 E12.19428
G1 X206.265 Y140.026 E12.25933
G1 X205.086 Y140.205 E12.32001
G1 X204.078 Y140.312 E12.3716
G1 X203.238 Y140.367 E12.41443
G1 X201.573 Y140.4 E12.49918
G1 X35.908 Y140.4 E20.92954
G1 X34.969 Y140.389 E20.97733
G1 X33.931 Y140.345 E21.0302
G1 X32.674 Y140.235 E21.09441
G1 X31.424 Y140.049 E21.15872
G1 X30.546 Y139.876 E21.20426
G1 X29.415 Y139.604 E21.26345
G1 X28.553 Y139.353 E21.30914
G1 X27.129 Y138.861 E21.38581
G1 X25.981 Y138.377 E21.44921
G1 X24.948 Y137.881 E21.50752
G1 X24.163 Y137.46 E21.55285
G1 X23.083 Y136.814 E21.61689
G1 X22.187 Y136.212 E21.67182
G1 X21.342 Y135.587 E21.7253
G1 X20.589 Y134.978 E21.77459
G1 X19.634 Y134.128 E21.83965
G1 X18.605 Y133.088 E21.9141
G1 X18.153 Y132.585 E21.94851
G1 X17.448 Y131.737 E22.00463
G1 X16.547 Y130.531 E22.08123
G1 X15.829 Y129.422 E22.14846
G1 X15.259 Y128.432 E22.2066
G1 X14.742 Y127.421 E22.26438
G1 X14.282 Y126.404 E22.32118
G1 X13.857 Y125.317 E22.38058
G1 X13.504 Y124.27 E22.4368
G1 X13.257 Y123.413 E22.48219
G1 X12.935 Y122.041 E22.5539
G1 X12.779 Y121.186 E22.59813
G1 X12.62 Y120.017 E22.65817
G1 X12.521 Y118.87 E22.71675
G1 X12.481 Y117.721 E22.77526
G1 X12.499 Y116.565 E22.83409
G1 X12.549 Y115.725 E22.87691
G1 X12.687 Y114.403 E22.94455
G1 X12.888 Y113.197 E23.00677
G1 X13.076 Y112.311 E23.05286
G1 X13.362 Y111.208 E23.11085
G1 X13.786 Y109.867 E23.18242
G1 X14.2 Y108.796 E23.24085
G1 X14.632 Y107.811 E23.29558
G1 X15.144 Y106.782 E23.35407
G1 X15.589 Y105.98 E23.40074
G1 X16.18 Y105.023 E23.45798
G1 X17.025 Y103.803 E23.5335
G1 X17.834 Y102.789 E23.59951
G1 X18.602 Y101.918 E23.65861
G1 X19.376 Y101.125 E23.715
G1 X20.226 Y100.334 E23.77408
G1 X21.11 Y99.595 E23.83272
G1 X21.787 Y99.076 E23.87613
G1 X22.792 Y98.376 E23.93845
G1 X23.777 Y97.758 E23.99762
G1 X24.888 Y97.149 E24.0621
G1 X25.549 Y96.822 E24.09963
G1 X26.842 Y96.253 E24.17151
G1 X28.085 Y95.799 E24.23885
G1 X29.139 Y95.473 E24.295
G1 F2700 E23.795
;MESH:mount_cover.stl
G0 F3060 X34.43 Y99.161
G0 X34.51 Y100.241
G0 X62.714 Y119.401
G0 X62.773 Y119.11
;TYPE:WALL-INNER
G1 F2700 E24.295
G1 F4500 X62.187 Y118.986 E24.32548
G1 X61.705 Y118.694 E24.35416
G1 X61.452 Y118.402 E24.37382
G1 X61.244 Y117.967 E24.39835
G1 X61.175 Y117.399 E24.42747
G1 X61.255 Y116.992 E24.44858
G1 X61.526 Y116.484 E24.47788
G1 X61.885 Y116.168 E24.50222
G1 X62.301 Y115.969 E24.52568
G1 X62.763 Y115.901 E24.54945
G1 X63.223 Y115.963 E24.57307
G1 X63.633 Y116.153 E24.59606
G1 X64.066 Y116.557 E24.6262
G1 X64.299 Y117.026 E24.65285
G1 X64.342 Y117.196 E24.66177
G1 X64.361 Y117.757 E24.69034
G1 X64.112 Y118.396 E24.72523
G1 X63.711 Y118.797 E24.75409
G1 X63.187 Y119.048 E24.78366
G1 X62.773 Y119.11 E24.80496
G0 F3060 X62.714 Y119.401
G0 X90.714 Y119.401
G0 X90.773 Y119.11
G1 F4500 X90.187 Y118.986 E24.83544
G1 X89.705 Y118.694 E24.86412
G1 X89.452 Y118.402 E24.88378
G1 X89.226 Y117.915 E24.9111
G1 X89.177 Y117.38 E24.93844
G1 X89.29 Y116.916 E24.96274
G1 X89.559 Y116.455 E24.98991
G1 X89.885 Y116.168 E25.01201
G1 X90.301 Y115.969 E25.03547
G1 X90.763 Y115.901 E25.05924
G1 X91.223 Y115.963 E25.08286
G1 X91.633 Y116.153 E25.10585
G1 X92.058 Y116.533 E25.13487
G1 X92.305 Y117.042 E25.16366
G1 X92.361 Y117.649 E25.19468
G1 X92.337 Y117.818 E25.20336
G1 X92.109 Y118.381 E25.23427
G1 X91.711 Y118.797 E25.26357
G1 X91.187 Y119.048 E25.29314
G1 X90.773 Y119.11 E25.31444
G0 F3060 X90.714 Y119.401
G0 X115.194 Y129.101
G0 X116.964 Y129.504
G0 X119.421 Y129.682
G0 X119.399 Y129.384
G1 F4500 X118.757 Y129.4 E25.34712
G1 X118.167 Y129.385 E25.37715
G1 X117.572 Y129.34 E25.40752
G1 X116.943 Y129.262 E25.43977
G1 X116.398 Y129.161 E25.46798
G1 X115.818 Y129.029 E25.49825
G1 X115.247 Y128.866 E25.52847
G1 X114.69 Y128.678 E25.55838
G1 X114.137 Y128.46 E25.58863
G1 X113.621 Y128.23 E25.61738
G1 X113.068 Y127.945 E25.64904
G1 X112.556 Y127.647 E25.67918
G1 X112.103 Y127.355 E25.70661
G1 X111.571 Y126.976 E25.73985
G1 X111.113 Y126.608 E25.76975
G1 X110.663 Y126.211 E25.80029
G1 X110.243 Y125.798 E25.83026
G1 X109.836 Y125.361 E25.86065
G1 X109.458 Y124.906 E25.89075
G1 X109.098 Y124.432 E25.92104
G1 X108.784 Y123.97 E25.94947
G1 X108.458 Y123.437 E25.98126
G1 X108.188 Y122.942 E26.00995
G1 X107.917 Y122.379 E26.04175
G1 X107.7 Y121.862 E26.07028
G1 X107.485 Y121.272 E26.10224
G1 X107.312 Y120.708 E26.13226
G1 X107.168 Y120.146 E26.16178
G1 X107.05 Y119.551 E26.19265
G1 X106.962 Y118.967 E26.2227
G1 X106.904 Y118.373 E26.25308
G1 X106.875 Y117.784 E26.28308
G1 X106.875 Y117.19 E26.31331
G1 X106.906 Y116.6 E26.34338
G1 X106.966 Y116.001 E26.37401
G1 X107.055 Y115.422 E26.40382
G1 X107.172 Y114.838 E26.43413
G1 X107.32 Y114.266 E26.4642
G1 X107.495 Y113.697 E26.49449
G1 X107.7 Y113.138 E26.52479
G1 X107.917 Y112.621 E26.55332
G1 X108.188 Y112.058 E26.58512
G1 X108.473 Y111.537 E26.61534
G1 X108.784 Y111.03 E26.64561
G1 X109.098 Y110.568 E26.67403
G1 X109.475 Y110.072 E26.70574
G1 X109.858 Y109.614 E26.73612
G1 X110.262 Y109.183 E26.76618
G1 X110.663 Y108.789 E26.79479
G1 X111.134 Y108.374 E26.82673
G1 X111.596 Y108.005 E26.85682
G1 X112.075 Y107.661 E26.88683
G1 X112.58 Y107.339 E26.91731
G1 X113.094 Y107.041 E26.94754
G1 X113.62 Y106.771 E26.97763
G1 X114.142 Y106.538 E27.00672
G1 X114.689 Y106.322 E27.03665
G1 X115.275 Y106.125 E27.06811
G1 X115.849 Y105.963 E27.09846
G1 X116.426 Y105.833 E27.12856
G1 X116.974 Y105.737 E27.15687
G1 X117.568 Y105.66 E27.18735
G1 X118.167 Y105.615 E27.21792
G1 X118.787 Y105.6 E27.24948
G1 X119.377 Y105.615 E27.27951
G1 X119.972 Y105.66 E27.30988
G1 X120.601 Y105.738 E27.34213
G1 X121.146 Y105.839 E27.37034
G1 X121.722 Y105.97 E27.4004
G1 X122.297 Y106.134 E27.43082
G1 X122.854 Y106.322 E27.46074
G1 X123.407 Y106.54 E27.49099
G1 X123.918 Y106.768 E27.51946
G1 X124.477 Y107.056 E27.55146
G1 X124.988 Y107.353 E27.58154
G1 X125.423 Y107.634 E27.60789
G1 X125.969 Y108.021 E27.64195
G1 X126.414 Y108.379 E27.67101
G1 X126.857 Y108.767 E27.70098
G1 X127.298 Y109.199 E27.7324
G1 X127.703 Y109.635 E27.76268
G1 X128.07 Y110.073 E27.79176
G1 X128.444 Y110.565 E27.82321
G1 X128.76 Y111.03 E27.85182
G1 X129.086 Y111.564 E27.88365
G1 X129.367 Y112.08 E27.91355
G1 X129.615 Y112.595 E27.94264
G1 X129.848 Y113.147 E27.97313
G1 X130.051 Y113.703 E28.00325
G1 X130.225 Y114.272 E28.03353
G1 X130.373 Y114.845 E28.06365
G1 X130.493 Y115.445 E28.09478
G1 X130.577 Y115.995 E28.1231
G1 X130.638 Y116.603 E28.15419
G1 X130.668 Y117.194 E28.18431
G1 X130.668 Y117.81 E28.21565
G1 X130.638 Y118.4 E28.24572
G1 X130.582 Y118.967 E28.27471
G1 X130.489 Y119.578 E28.30616
G1 X130.372 Y120.162 E28.33647
G1 X130.231 Y120.711 E28.36531
G1 X130.049 Y121.303 E28.39683
G1 X129.844 Y121.861 E28.42708
G1 X129.614 Y122.409 E28.45733
G1 X129.369 Y122.916 E28.48598
G1 X129.082 Y123.441 E28.51643
G1 X128.775 Y123.947 E28.54655
G1 X128.46 Y124.413 E28.57517
G1 X128.083 Y124.909 E28.60687
G1 X127.686 Y125.386 E28.63845
G1 X127.299 Y125.8 E28.66729
G1 X126.898 Y126.195 E28.69594
G1 X126.427 Y126.61 E28.72788
G1 X125.974 Y126.975 E28.75748
G1 X125.483 Y127.326 E28.7882
G1 X124.987 Y127.648 E28.81829
G1 X124.471 Y127.946 E28.84861
G1 X123.945 Y128.219 E28.87877
G1 X123.404 Y128.462 E28.90895
G1 X122.848 Y128.681 E28.93936
G1 X122.26 Y128.881 E28.97097
G1 X121.711 Y129.033 E28.99996
G1 X121.167 Y129.157 E29.02835
G1 X120.617 Y129.255 E29.05678
G1 X119.967 Y129.341 E29.09014
G1 X119.399 Y129.384 E29.11913
G0 F3060 X119.421 Y129.682
G0 X121.788 Y129.259
G0 X122.763 Y128.931
G0 X147.081 Y119.376
G0 X146.999 Y119.083
G1 F4500 X146.425 Y119.072 E29.14835
G1 X145.927 Y118.857 E29.17595
G1 X145.572 Y118.559 E29.19953
G1 X145.34 Y118.216 E29.22061
G1 X145.184 Y117.654 E29.25029
G1 X145.223 Y117.092 E29.27896
G1 X145.408 Y116.644 E29.30362
G1 X145.839 Y116.2 E29.33511
G1 X146.099 Y116.046 E29.35049
G1 X146.545 Y115.917 E29.37411
G1 X147.066 Y115.927 E29.40063
G1 X147.539 Y116.097 E29.42621
G1 X147.957 Y116.426 E29.45328
G1 X148.197 Y116.772 E29.47471
G1 X148.367 Y117.276 E29.50177
G1 X148.319 Y117.915 E29.53438
G1 X148.128 Y118.36 E29.55903
G1 X147.742 Y118.774 E29.58783
G1 X147.444 Y118.954 E29.60555
G1 X146.999 Y119.083 E29.62912
G0 F3060 X147.081 Y119.376
G0 X175.081 Y119.376
G0 X174.999 Y119.083
G1 F4500 X174.477 Y119.073 E29.65569
G1 X174.009 Y118.906 E29.68098
G1 X173.528 Y118.507 E29.71278
G1 X173.312 Y118.153 E29.73388
G1 X173.177 Y117.719 E29.75701
G1 X173.225 Y117.085 E29.78937
G1 X173.41 Y116.642 E29.8138
G1 X173.839 Y116.2 E29.84514
G1 X174.099 Y116.046 E29.86052
G1 X174.545 Y115.917 E29.88415
G1 X175.066 Y115.927 E29.91066
G1 X175.539 Y116.097 E29.93624
G1 X175.957 Y116.426 E29.96331
G1 X176.197 Y116.772 E29.98474
G1 X176.363 Y117.26 E30.01097
G1 X176.338 Y117.826 E30.0398
G1 X176.127 Y118.36 E30.06902
G1 X175.742 Y118.774 E30.09779
G1 X175.444 Y118.954 E30.11551
G1 X174.999 Y119.083 E30.13908
G0 F3060 X175.081 Y119.376
G0 X203.01 Y134.279
G0 X203.023 Y134.578
G1 F4500 X203.871 Y134.514 E30.18236
G1 X204.67 Y134.414 E30.22334
G1 X205.559 Y134.26 E30.26925
G1 X206.394 Y134.07 E30.31283
G1 X207.242 Y133.832 E30.35765
G1 X208.022 Y133.568 E30.39955
G1 X208.813 Y133.257 E30.4428
G1 X209.59 Y132.906 E30.48619
G1 X210.35 Y132.516 E30.52966
G1 X211.088 Y132.09 E30.57302
G1 X211.803 Y131.628 E30.61634
G1 X212.498 Y131.128 E30.65991
G1 X213.161 Y130.6 E30.70304
G1 X213.782 Y130.051 E30.74522
G1 X214.411 Y129.44 E30.78985
G1 X214.994 Y128.812 E30.83345
G1 X215.542 Y128.159 E30.87683
G1 X216.056 Y127.48 E30.92017
G1 X216.538 Y126.775 E30.96363
G1 X216.998 Y126.023 E31.00849
G1 X217.388 Y125.299 E31.05034
G1 X217.731 Y124.587 E31.09055
G1 X218.091 Y123.745 E31.13715
G1 X218.381 Y122.945 E31.18046
G1 X218.633 Y122.129 E31.22392
G1 X218.842 Y121.303 E31.26727
G1 X219.013 Y120.466 E31.31075
G1 X219.148 Y119.578 E31.35646
G1 X219.223 Y118.778 E31.39734
G1 X219.265 Y117.956 E31.43923
G1 X219.265 Y117.072 E31.48421
G1 X219.223 Y116.219 E31.52767
G1 X219.144 Y115.422 E31.56843
G1 X219.012 Y114.528 E31.61442
G1 X218.843 Y113.698 E31.65752
G1 X218.631 Y112.867 E31.70116
G1 X218.379 Y112.051 E31.74462
G1 X218.089 Y111.249 E31.78802
G1 X217.735 Y110.409 E31.83441
G1 X217.387 Y109.7 E31.8746
G1 X216.995 Y108.98 E31.91632
G1 X216.535 Y108.221 E31.96148
G1 X216.056 Y107.52 E32.00469
G1 X215.539 Y106.839 E32.0482
G1 X214.992 Y106.186 E32.09154
G1 X214.411 Y105.559 E32.13504
G1 X213.785 Y104.947 E32.17959
G1 X213.162 Y104.401 E32.22175
G1 X212.498 Y103.872 E32.26495
G1 X211.803 Y103.372 E32.30852
G1 X211.088 Y102.911 E32.35181
G1 X210.346 Y102.482 E32.39543
G1 X209.588 Y102.093 E32.43878
G1 X208.813 Y101.743 E32.48206
G1 X208.023 Y101.432 E32.52526
G1 X207.242 Y101.17 E32.56718
G1 X206.393 Y100.93 E32.61208
G1 X205.557 Y100.74 E32.65571
G1 X204.701 Y100.587 E32.69996
G1 X203.872 Y100.486 E32.74246
G1 X203.022 Y100.422 E32.78583
G1 X202.196 Y100.402 E32.82788
G1 X35.381 Y100.4 E41.31676
G1 X34.521 Y100.422 E41.36054
G1 X33.673 Y100.486 E41.40381
G1 X32.874 Y100.586 E41.44479
G1 X31.985 Y100.74 E41.4907
G1 X31.15 Y100.93 E41.53428
G1 X30.302 Y101.168 E41.5791
G1 X29.522 Y101.432 E41.62101
G1 X28.731 Y101.743 E41.66426
G1 X27.954 Y102.094 E41.70765
G1 X27.194 Y102.484 E41.75112
G1 X26.456 Y102.91 E41.79448
G1 X25.741 Y103.372 E41.8378
G1 X25.046 Y103.872 E41.88137
G1 X24.383 Y104.4 E41.9245
G1 X23.762 Y104.949 E41.96668
G1 X23.133 Y105.56 E42.0113
G1 X22.55 Y106.188 E42.05491
G1 X22.002 Y106.841 E42.09829
G1 X21.488 Y107.52 E42.14163
G1 X21.006 Y108.224 E42.18504
G1 X20.546 Y108.977 E42.22995
G1 X20.156 Y109.701 E42.27179
G1 X19.813 Y110.413 E42.31201
G1 X19.452 Y111.255 E42.35863
G1 X19.152 Y112.087 E42.40364
G1 X18.91 Y112.87 E42.44534
G1 X18.702 Y113.697 E42.48874
G1 X18.516 Y114.614 E42.53635
G1 X18.406 Y115.376 E42.57553
G1 X18.32 Y116.225 E42.61896
G1 X18.278 Y117.076 E42.66231
G1 X18.277 Y117.928 E42.70567
G1 X18.32 Y118.777 E42.74893
G1 X18.4 Y119.578 E42.78989
G1 X18.532 Y120.468 E42.83568
G1 X18.702 Y121.303 E42.87904
G1 X18.91 Y122.129 E42.92239
G1 X19.163 Y122.945 E42.96586
G1 X19.452 Y123.747 E43.00925
G1 X19.809 Y124.591 E43.05588
G1 X20.155 Y125.296 E43.09584
G1 X20.549 Y126.02 E43.13779
G1 X21.006 Y126.777 E43.18279
G1 X21.488 Y127.48 E43.22616
G1 X22.002 Y128.159 E43.2695
G1 X22.55 Y128.812 E43.31288
G1 X23.134 Y129.441 E43.35656
G1 X23.759 Y130.053 E43.40107
G1 X24.382 Y130.599 E43.44323
G1 X25.046 Y131.128 E43.48643
G1 X25.741 Y131.628 E43.53
G1 X26.456 Y132.09 E43.57332
G1 X27.194 Y132.516 E43.61668
G1 X27.954 Y132.906 E43.66015
G1 X28.731 Y133.257 E43.70354
G1 X29.521 Y133.568 E43.74674
G1 X30.302 Y133.83 E43.78866
G1 X31.151 Y134.07 E43.83356
G1 X31.987 Y134.26 E43.87718
G1 X32.874 Y134.418 E43.92303
G1 X33.672 Y134.514 E43.96393
G1 X34.556 Y134.58 E44.00904
G1 X35.381 Y134.6 E44.05104
G1 X202.163 Y134.6 E52.53824
G1 X203.023 Y134.578 E52.58202
G0 F3060 X203.043 Y134.978
;TYPE:WALL-OUTER
G1 F4500 X203.911 Y134.912 E52.62632
G1 X204.729 Y134.81 E52.66827
G1 X205.637 Y134.652 E52.71517
G1 X206.492 Y134.458 E52.75978
G1 X207.36 Y134.214 E52.80567
G1 X208.16 Y133.944 E52.84863
G1 X208.969 Y133.625 E52.89289
G1 X209.764 Y133.266 E52.93728
G1 X210.542 Y132.868 E52.98175
G1 X211.297 Y132.431 E53.02614
G1 X212.029 Y131.958 E53.07049
G1 X212.74 Y131.447 E53.11505
G1 X213.418 Y130.906 E53.15919
G1 X214.054 Y130.345 E53.20234
G1 X214.697 Y129.72 E53.24797
G1 X215.294 Y129.077 E53.29262
G1 X215.855 Y128.409 E53.33701
G1 X216.381 Y127.714 E53.38137
G1 X216.874 Y126.993 E53.42582
G1 X217.345 Y126.223 E53.47175
G1 X217.744 Y125.481 E53.51462
G1 X218.095 Y124.753 E53.55575
G1 X218.463 Y123.892 E53.6034
G1 X218.761 Y123.072 E53.6478
G1 X219.018 Y122.237 E53.69225
G1 X219.232 Y121.392 E53.73661
G1 X219.407 Y120.536 E53.78107
G1 X219.545 Y119.627 E53.82786
