;FLAVOR:Marlin
;TIME:2960
;Filament used: 5.91903m
;Layer height: 0.2
;MINX:78.817
;MINY:111.893
;MINZ:0.3
;MAXX:169.182
;MAXY:178.283
;MAXZ:50.5
;Generated with Cura_SteamEngine 5.4.0
M140 S62
M105
M190 S62
M104 S225
M105
M109 S225
M82 ;absolute extrusion mode
G28 ;Home
G1 Z15.0 F6000 ;Move the platform down 15mm
;Prime the extruder
G92 E0
G1 F200 E3
G92 E0
G92 E0
G92 E0
G1 F2700 E-0.5
;LAYER_COUNT:252
;LAYER:0
M107
G0 F3060 X99.279 Y113.027 Z0.3
;TYPE:SKIRT
G1 F2700 E0
G1 F4500 X99.808 Y112.659 E0.03279
G1 X100.379 Y112.359 E0.06562
G1 X100.982 Y112.132 E0.0984
G1 X101.609 Y111.981 E0.13122
G1 X102.432 Y111.895 E0.17333
G1 X144.792 Y111.893 E2.32895
G1 X145.566 Y111.904 E2.36834
G1 X146.209 Y111.953 E2.40115
G1 X146.841 Y112.081 E2.43397
G1 X147.452 Y112.286 E2.46677
G1 X148.033 Y112.566 E2.49959
G1 X148.575 Y112.915 E2.53239
G1 X149.069 Y113.329 E2.56519
G1 X149.509 Y113.801 E2.59803
G1 X149.886 Y114.323 E2.63079
G1 X150.197 Y114.888 E2.66361
G1 X150.483 Y115.644 E2.70475
G1 X150.734 Y116.504 E2.75033
G1 X151.031 Y117.578 E2.80704
G1 X151.815 Y120.131 E2.94294
G1 X152.673 Y122.668 E3.07923
G1 X153.609 Y125.198 E3.21651
G1 X154.605 Y127.67 E3.35213
G1 X155.677 Y130.128 E3.48859
G1 X156.829 Y132.581 E3.6265
G1 X158.022 Y134.94 E3.76102
G1 X159.308 Y137.32 E3.89868
G1 X160.644 Y139.628 E4.03439
G1 X162.465 Y142.556 E4.20986
G1 X162.912 Y143.251 E4.25191
G1 X163.226 Y143.814 E4.28471
G1 X163.423 Y144.281 E4.3105
G1 X163.647 Y144.896 E4.34381
G1 X164.171 Y146.405 E4.4251
G1 X165.116 Y148.898 E4.56077
G1 X166.129 Y151.36 E4.69625
G1 X167.232 Y153.837 E4.83423
G1 X168.675 Y156.84 E5.00377
G1 X168.918 Y157.438 E5.03662
G1 X169.085 Y158.06 E5.0694
G1 X169.173 Y158.699 E5.10222
G1 X169.182 Y159.343 E5.135
G1 X169.111 Y159.984 E5.16781
G1 X168.961 Y160.611 E5.20062
G1 X168.735 Y161.215 E5.23344
G1 X168.436 Y161.786 E5.26624
G1 X168.033 Y162.36 E5.30193
G1 X167.012 Y163.609 E5.38402
G1 X165.355 Y165.714 E5.52035
G1 X163.749 Y167.876 E5.6574
G1 X162.213 Y170.07 E5.79369
G1 X160.796 Y172.219 E5.92468
G1 X160.437 Y172.78 E5.95857
G1 X159.992 Y173.389 E5.99696
G1 X159.211 Y174.194 E6.05403
G1 X157.949 Y175.455 E6.14482
G1 X157.452 Y175.939 E6.18012
G1 X156.963 Y176.36 E6.21296
G1 X156.426 Y176.716 E6.24574
G1 X155.849 Y177.004 E6.27856
G1 X155.3 Y177.2 E6.30823
G1 X154.495 Y177.438 E6.35094
G1 X152.741 Y177.929 E6.44363
G1 X152.051 Y178.111 E6.47995
G1 X151.419 Y178.236 E6.51273
G1 X150.776 Y178.283 E6.54554
G1 X150.132 Y178.249 E6.57836
G1 X149.464 Y178.128 E6.6129
G1 X146.153 Y177.217 E6.78765
G1 X143.519 Y176.568 E6.9257
G1 X140.935 Y176.009 E7.06024
G1 X138.275 Y175.51 E7.19796
G1 X135.647 Y175.096 E7.33334
G1 X132.989 Y174.753 E7.46973
G1 X130.324 Y174.485 E7.60603
G1 X127.622 Y174.29 E7.74388
G1 X124.945 Y174.173 E7.88024
G1 X122.308 Y174.133 E8.01445
G1 X119.594 Y174.168 E8.15257
G1 X116.893 Y174.279 E8.29013
G1 X114.253 Y174.463 E8.4248
G1 X111.591 Y174.724 E8.56092
G1 X108.902 Y175.065 E8.69885
G1 X106.285 Y175.473 E8.83363
G1 X103.61 Y175.967 E8.97206
G1 X101.036 Y176.517 E9.106
G1 X98.403 Y177.159 E9.24392
G1 X94.926 Y178.102 E9.42725
G1 X94.294 Y178.232 E9.46008
G1 X93.651 Y178.282 E9.4929
G1 X93.007 Y178.253 E9.52571
G1 X92.181 Y178.106 E9.5684
G1 X89.742 Y177.394 E9.6977
G1 X89.079 Y177.192 E9.73297
G1 X88.476 Y176.966 E9.76574
G1 X87.904 Y176.668 E9.79856
G1 X87.374 Y176.301 E9.83136
G1 X86.75 Y175.74 E9.87406
G1 X84.98 Y173.974 E10.0013
G1 X84.509 Y173.49 E10.03567
G1 X84.089 Y173.001 E10.06847
G1 X83.733 Y172.463 E10.1013
G1 X83.405 Y171.804 E10.13876
G1 X82.344 Y168.726 E10.30444
G1 X81.379 Y166.17 E10.44347
G1 X80.38 Y163.736 E10.57736
G1 X79.256 Y161.195 E10.71875
G1 X79.033 Y160.59 E10.75156
G1 X78.885 Y159.963 E10.78434
G1 X78.817 Y159.322 E10.81715
G1 X78.829 Y158.677 E10.84997
G1 X78.92 Y158.039 E10.88277
G1 X79.089 Y157.417 E10.91557
G1 X79.357 Y156.775 E10.95097
G1 X80.372 Y154.736 E11.06688
G1 X81.506 Y152.305 E11.20338
G1 X82.58 Y149.822 E11.34105
G1 X83.564 Y147.362 E11.47588
G1 X84.533 Y144.68 E11.621
G1 X84.778 Y144.024 E11.65663
G1 X85.09 Y143.323 E11.69568
G1 X86.59 Y140.96 E11.83811
G1 X87.992 Y138.615 E11.97714
G1 X89.293 Y136.292 E12.11263
G1 X90.542 Y133.905 E12.24972
G1 X91.715 Y131.502 E12.3858
G1 X92.82 Y129.064 E12.52201
G1 X93.856 Y126.595 E12.65827
G1 X94.842 Y124.047 E12.7973
G1 X95.72 Y121.57 E12.93103
G1 X96.541 Y119.029 E13.06692
G1 X97.511 Y115.663 E13.24518
G1 X97.728 Y115.056 E13.27799
G1 X98.018 Y114.48 E13.3108
G1 X98.377 Y113.945 E13.34359
G1 X98.8 Y113.458 E13.37641
G1 X99.279 Y113.027 E13.4092
G1 F2700 E12.9092
G0 F3060 X93.198 Y143.828
G1 F2700 E13.4092
G1 F4500 X95.072 Y144.353 E13.50824
G1 X96.43 Y145.787 E13.60874
G1 X96.955 Y147.587 E13.70416
G1 X96.43 Y149.463 E13.80329
G1 X94.91 Y150.984 E13.91272
G1 X93.013 Y151.514 E14.01295
G1 X91.225 Y150.991 E14.10775
G1 X89.802 Y149.568 E14.21016
G1 X89.279 Y147.781 E14.30491
G1 X89.815 Y145.946 E14.40219
G1 X91.324 Y144.353 E14.51385
G1 X93.198 Y143.828 E14.61289
G0 F3060 X93.198 Y144.243
G1 F4500 X94.857 Y144.708 E14.70056
G1 X96.073 Y145.992 E14.79055
G1 X96.539 Y147.59 E14.87526
G1 X96.073 Y149.254 E14.9632
G1 X94.701 Y150.627 E15.06197
G1 X93.016 Y151.098 E15.151
G1 X91.436 Y150.636 E15.23477
G1 X90.157 Y149.357 E15.32682
G1 X89.696 Y147.781 E15.41038
G1 X90.172 Y146.152 E15.49674
G1 X91.539 Y144.708 E15.59793
G1 X93.198 Y144.243 E15.6856
G0 F3060 X93.198 Y144.659
G1 F4500 X94.643 Y145.063 E15.76196
G1 X95.716 Y146.197 E15.8414
G1 X96.123 Y147.592 E15.91535
G1 X95.716 Y149.045 E15.99214
G1 X94.491 Y150.271 E16.08033
G1 X93.02 Y150.682 E16.15806
G1 X91.646 Y150.28 E16.23091
G1 X90.512 Y149.146 E16.31252
G1 X90.113 Y147.78 E16.38494
G1 X90.529 Y146.356 E16.46043
G1 X91.753 Y145.063 E16.55103
G1 X93.198 Y144.659 E16.62739
G1 F2700 E16.12739
G0 F3060 X83.265 Y158.643
G0 X83.441 Y159.748
G0 X93.564 Y160.885
G1 F2700 E16.62739
G1 F4500 X96.561 Y161.725 E16.78577
G1 X98.724 Y164.009 E16.94585
G1 X99.564 Y166.888 E17.09847
G1 X98.725 Y169.885 E17.25684
G1 X96.563 Y172.047 E17.41243
G1 X93.565 Y172.886 E17.57086
G1 X90.689 Y172.046 E17.72332
G1 X88.404 Y169.761 E17.88777
G1 X87.564 Y166.886 E18.04019
G1 X88.404 Y164.009 E18.19271
G1 X90.567 Y161.725 E18.35278
G1 X93.564 Y160.885 E18.51117
G0 F3060 X93.564 Y161.3
G1 F4500 X96.346 Y162.079 E18.65819
G1 X98.368 Y164.215 E18.80786
G1 X99.148 Y166.891 E18.9497
G1 X98.368 Y169.676 E19.09688
G1 X96.354 Y171.69 E19.24182
G1 X93.568 Y172.47 E19.38905
G1 X90.9 Y171.691 E19.53049
G1 X88.759 Y169.55 E19.68457
G1 X87.981 Y166.886 E19.82579
G1 X88.76 Y164.215 E19.96738
G1 X90.782 Y162.079 E20.11705
G1 X93.564 Y161.3 E20.26407
G0 F3060 X93.564 Y161.716
G1 F4500 X96.132 Y162.435 E20.39978
G1 X98.01 Y164.419 E20.53879
G1 X98.732 Y166.893 E20.66994
G1 X98.011 Y169.467 E20.80597
G1 X96.145 Y171.333 E20.94026
G1 X93.571 Y172.054 E21.07629
G1 X91.111 Y171.336 E21.2067
G1 X89.114 Y169.339 E21.35041
G1 X88.398 Y166.886 E21.48045
G1 X89.118 Y164.419 E21.61123
G1 X90.996 Y162.435 E21.75025
G1 X93.564 Y161.716 E21.88595
G1 F2700 E21.38595
G0 F3060 X144.723 Y166.886
G1 F2700 E21.88595
G1 F4500 X145.563 Y164.009 E22.03847
G1 X147.726 Y161.725 E22.19855
G1 X150.723 Y160.885 E22.35694
G1 X153.72 Y161.725 E22.51532
G1 X155.883 Y164.009 E22.6754
G1 X156.723 Y166.888 E22.82802
G1 X155.884 Y169.885 E22.98639
G1 X153.722 Y172.047 E23.14198
G1 X150.724 Y172.886 E23.30041
G1 X147.848 Y172.046 E23.45288
G1 X145.563 Y169.761 E23.61732
G1 X144.723 Y166.886 E23.76974
G0 F3060 X145.14 Y166.886
G1 F4500 X145.919 Y164.215 E23.91132
G1 X147.941 Y162.079 E24.061
G1 X150.723 Y161.3 E24.20801
G1 X153.505 Y162.079 E24.35503
G1 X155.527 Y164.215 E24.5047
G1 X156.307 Y166.891 E24.64655
G1 X155.527 Y169.676 E24.79372
G1 X153.513 Y171.69 E24.93866
G1 X150.727 Y172.47 E25.08589
G1 X148.059 Y171.691 E25.22733
G1 X145.918 Y169.55 E25.38141
G1 X145.14 Y166.886 E25.52264
G0 F3060 X145.557 Y166.886
G1 F4500 X146.277 Y164.419 E25.65341
G1 X148.155 Y162.435 E25.79243
G1 X150.723 Y161.716 E25.92814
G1 X153.291 Y162.435 E26.06385
G1 X155.169 Y164.419 E26.20287
G1 X155.891 Y166.893 E26.33401
G1 X155.17 Y169.467 E26.47004
G1 X153.304 Y171.333 E26.60433
G1 X150.73 Y172.054 E26.74036
G1 X148.27 Y171.336 E26.87077
G1 X146.273 Y169.339 E27.01448
G1 X145.557 Y166.886 E27.14452
G1 F2700 E26.64452
G0 F3060 X164.559 Y159.748
G0 X164.735 Y158.643
G0 X153.371 Y151.156
G1 F2700 E27.14452
G1 F4500 X151.948 Y149.733 E27.24693
G1 X151.935 Y149.688 E27.24931
G1 X151.884 Y149.603 E27.25436
G1 X151.001 Y148.719 E27.31794
G1 X150.482 Y146.944 E27.41205
G1 X151.001 Y145.167 E27.50625
G1 X152.339 Y143.754 E27.60528
G1 X154.19 Y143.235 E27.70311
G1 X156.04 Y143.753 E27.80087
G1 X156.915 Y144.677 E27.86563
G1 X157.006 Y144.732 E27.87104
G1 X157.021 Y144.736 E27.87183
G1 X158.369 Y146.159 E27.97157
G1 X158.891 Y147.947 E28.06636
G1 X158.37 Y149.81 E28.1648
G1 X157.022 Y151.158 E28.26181
G1 X155.159 Y151.679 E28.36026
G1 X153.371 Y151.156 E28.45506
G0 F3060 X153.582 Y150.801
G1 F4500 X152.263 Y149.482 E28.54998
G1 X152.167 Y149.32 E28.55956
G1 X151.356 Y148.508 E28.61796
G1 X150.899 Y146.944 E28.70088
G1 X151.357 Y145.373 E28.78415
G1 X152.554 Y144.108 E28.87278
G1 X154.19 Y143.65 E28.95923
G1 X155.825 Y144.108 E29.04564
G1 X156.624 Y144.952 E29.10478
G1 X156.74 Y145.022 E29.11167
G1 X158.012 Y146.365 E29.2058
G1 X158.475 Y147.949 E29.28978
G1 X158.013 Y149.601 E29.37708
G1 X156.813 Y150.801 E29.46344
G1 X155.162 Y151.263 E29.55068
G1 X153.582 Y150.801 E29.63445
G0 F3060 X153.792 Y150.445
G1 F4500 X152.613 Y149.266 E29.7193
G1 X152.587 Y149.208 E29.72253
G1 X152.45 Y149.037 E29.73368
G1 X151.711 Y148.297 E29.7869
G1 X151.316 Y146.944 E29.85863
G1 X151.715 Y145.577 E29.93109
G1 X152.768 Y144.464 E30.00906
G1 X154.19 Y144.066 E30.08421
G1 X155.611 Y144.463 E30.15929
G1 X156.334 Y145.227 E30.21282
G1 X156.534 Y145.385 E30.22579
G1 X157.655 Y146.569 E30.30876
G1 X158.059 Y147.953 E30.38213
G1 X157.657 Y149.391 E30.45811
G1 X156.603 Y150.445 E30.53396
G1 X155.166 Y150.847 E30.6099
G1 X153.792 Y150.445 E30.68275
G0 F3060 X154.006 Y150.09
;TYPE:SUPPORT
G1 F4500 X153.014 Y149.098 E30.75414
G1 X152.976 Y149.002 E30.75939
G1 X152.067 Y148.085 E30.8251
G1 X151.733 Y146.943 E30.88565
G1 X152.072 Y145.786 E30.947
G1 X152.986 Y144.818 E31.01475
G1 X154.191 Y144.481 E31.07842
G1 X155.395 Y144.818 E31.14204
G1 X156.296 Y145.765 E31.20856
G1 X156.377 Y145.802 E31.21309
G1 X157.297 Y146.775 E31.28124
G1 X157.642 Y147.957 E31.3439
G1 X157.3 Y149.179 E31.40847
G1 X156.391 Y150.088 E31.47389
G1 X155.169 Y150.43 E31.53846
G1 X154.006 Y150.09 E31.60012
G1 F2700 E31.10012
G0 F3060 X164.735 Y158.643
G0 X164.559 Y159.748
G0 X150.723 Y162.131
G1 F2700 E31.60012
G1 F4500 X153.074 Y162.789 E31.72436
G1 X154.812 Y164.627 E31.85308
G1 X155.474 Y166.897 E31.97341
G1 X154.815 Y169.253 E32.09791
G1 X153.091 Y170.977 E32.22198
G1 X150.733 Y171.637 E32.34658
G1 X148.484 Y170.981 E32.4658
G1 X146.628 Y169.125 E32.59937
G1 X145.974 Y166.886 E32.71807
G1 X146.634 Y164.627 E32.83783
G1 X148.372 Y162.789 E32.96656
G1 X150.723 Y162.131 E33.09079
G1 F2700 E32.59079
G0 F3060 X98.315 Y166.897
G1 F2700 E33.09079
G1 F4500 X97.656 Y169.253 E33.21528
G1 X95.932 Y170.977 E33.33935
G1 X93.574 Y171.637 E33.46396
G1 X91.325 Y170.981 E33.58318
G1 X89.469 Y169.125 E33.71675
G1 X88.815 Y166.886 E33.83545
G1 X89.475 Y164.627 E33.95521
G1 X91.213 Y162.789 E34.08393
G1 X93.564 Y162.131 E34.20817
G1 X95.915 Y162.789 E34.3324
G1 X97.653 Y164.627 E34.46113
G1 X98.315 Y166.897 E34.58146
G1 F2700 E34.08146
G0 F3060 X83.441 Y159.748
G0 X83.265 Y158.643
G0 X93.023 Y150.265
G1 F2700 E34.58146
G1 F4500 X91.86 Y149.925 E34.64312
G1 X90.868 Y148.933 E34.71451
G1 X90.53 Y147.78 E34.77565
G1 X90.887 Y146.562 E34.84024
G1 X91.969 Y145.418 E34.92037
G1 X93.198 Y145.074 E34.98532
G1 X94.427 Y145.418 E35.05026
G1 X95.358 Y146.403 E35.11923
G1 X95.706 Y147.596 E35.18247
G1 X95.36 Y148.834 E35.24789
G1 X94.28 Y149.913 E35.32557
G1 X93.023 Y150.265 E35.392
G1 F2700 E34.892
;MESH:soporte_motor.stl
G0 F3060 X97.232 Y150.019
G0 X98.033 Y150.748
G0 X159.429 Y158.243
G0 X159.561 Y158.049
;TYPE:WALL-INNER
G1 F2700 E35.392
G1 F4500 X158.262 Y157.4 E35.4659
G1 X156.868 Y156.622 E35.54713
G1 X155.597 Y155.824 E35.6235
G1 X154.332 Y154.937 E35.70213
G1 X153.132 Y154.003 E35.77951
G1 X151.984 Y153.015 E35.85658
G1 X150.901 Y151.991 E35.93243
G1 X149.832 Y150.868 E36.01133
G1 X148.832 Y149.712 E36.08911
G1 X147.907 Y148.523 E36.16577
G1 X147.025 Y147.267 E36.24387
G1 X146.213 Y145.985 E36.32109
G1 X145.463 Y144.655 E36.3988
G1 X144.782 Y143.296 E36.47615
G1 X144.183 Y141.937 E36.55173
G1 X143.631 Y140.486 E36.63073
G1 X143.166 Y139.065 E36.70681
G1 X142.766 Y137.604 E36.7839
G1 X142.433 Y136.091 E36.86273
G1 X142.18 Y134.589 E36.94024
G1 X142.003 Y133.083 E37.01741
G1 X141.901 Y131.591 E37.09351
G1 X141.873 Y130.045 E37.1722
G1 X141.92 Y128.525 E37.24958
G1 X142.04 Y127.027 E37.32606
G1 X142.246 Y125.461 E37.40643
G1 X142.508 Y124.031 E37.48041
G1 X142.853 Y122.546 E37.558
G1 X143.264 Y121.117 E37.63366
G1 X143.76 Y119.649 E37.71252
G1 X144.332 Y118.207 E37.79146
G1 X144.566 Y117.694 E37.82015
G1 X103.435 Y117.694 E39.91323
G1 X103.662 Y118.19 E39.94098
G1 X104.227 Y119.614 E40.01894
G1 X104.746 Y121.133 E40.10063
G1 X105.144 Y122.535 E40.17479
G1 X105.49 Y124.022 E40.25249
G1 X105.752 Y125.463 E40.32702
G1 X105.96 Y127.026 E40.40726
G1 X106.08 Y128.506 E40.48282
G1 X106.127 Y130.064 E40.56214
G1 X106.099 Y131.579 E40.63925
G1 X105.999 Y133.05 E40.71428
G1 X105.817 Y134.63 E40.79521
G1 X105.562 Y136.113 E40.87178
G1 X105.235 Y137.598 E40.94916
G1 X104.835 Y139.059 E41.02625
G1 X104.369 Y140.486 E41.10264
G1 X103.819 Y141.93 E41.18127
G1 X103.22 Y143.29 E41.25689
G1 X102.523 Y144.681 E41.33607
G1 X101.774 Y146.007 E41.41357
G1 X100.978 Y147.262 E41.48919
G1 X100.085 Y148.533 E41.56824
G1 X99.151 Y149.732 E41.64558
G1 X98.179 Y150.857 E41.72124
G1 X97.109 Y151.98 E41.80017
G1 X96.006 Y153.025 E41.87749
G1 X94.844 Y154.022 E41.95541
G1 X93.65 Y154.95 E42.03236
G1 X92.403 Y155.823 E42.10983
G1 X91.112 Y156.634 E42.18741
G1 X89.745 Y157.402 E42.2672
G1 X88.45 Y158.041 E42.34069
G1 X87.421 Y158.493 E42.39788
G1 X160.575 Y158.492 E46.12054
G1 X159.561 Y158.049 E46.17685
G0 F3060 X159.429 Y158.243
G0 X160.984 Y158.56
G0 X161.104 Y158.288
;TYPE:WALL-OUTER
G1 F4500 X159.713 Y157.678 E46.25414
G1 X158.457 Y157.05 E46.3256
G1 X157.081 Y156.283 E46.40577
G1 X155.802 Y155.479 E46.48264
G1 X154.578 Y154.621 E46.55871
G1 X153.393 Y153.7 E46.63508
G1 X152.259 Y152.724 E46.71122
G1 X151.169 Y151.692 E46.78761
G1 X150.134 Y150.606 E46.86395
G1 X149.148 Y149.466 E46.94065
G1 X148.234 Y148.293 E47.01632
G1 X147.363 Y147.053 E47.09344
G1 X146.561 Y145.789 E47.16961
G1 X145.821 Y144.476 E47.24631
G1 X145.148 Y143.134 E47.32271
G1 X144.546 Y141.766 E47.39877
G1 X144.011 Y140.362 E47.47522
G1 X143.546 Y138.941 E47.55131
G1 X143.149 Y137.488 E47.62796
G1 X142.827 Y136.024 E47.70424
G1 X142.577 Y134.542 E47.78072
G1 X142.402 Y133.056 E47.85686
G1 X142.3 Y131.554 E47.93347
G1 X142.273 Y130.057 E48.00967
G1 X142.319 Y128.557 E48.08603
G1 X142.44 Y127.048 E48.16307
G1 X142.64 Y125.533 E48.24083
G1 X142.904 Y124.094 E48.31528
G1 X143.245 Y122.627 E48.39193
G1 X143.643 Y121.245 E48.46511
G1 X144.143 Y119.768 E48.54446
G1 X144.696 Y118.373 E48.62083
G1 X145.188 Y117.294 E48.68117
G1 X102.812 Y117.294 E50.8376
G1 X103.298 Y118.356 E50.89704
G1 X103.859 Y119.771 E50.9745
G1 X104.361 Y121.243 E51.05364
G1 X104.754 Y122.626 E51.1268
G1 X105.096 Y124.094 E51.20351
G1 X105.36 Y125.544 E51.27851
G1 X105.561 Y127.058 E51.35623
G1 X105.681 Y128.548 E51.4323
G1 X105.727 Y130.057 E51.50912
G1 X105.7 Y131.552 E51.58521
G1 X105.601 Y133.004 E51.65927
G1 X105.42 Y134.579 E51.73995
G1 X105.172 Y136.027 E51.81471
G1 X104.849 Y137.492 E51.89105
G1 X104.455 Y138.935 E51.96717
G1 X103.989 Y140.362 E52.04356
G1 X103.453 Y141.769 E52.12018
G1 X102.849 Y143.137 E52.19628
G1 X102.175 Y144.485 E52.27297
G1 X101.436 Y145.793 E52.34942
G1 X100.635 Y147.055 E52.42549
G1 X99.769 Y148.287 E52.50212
G1 X98.848 Y149.47 E52.57841
G1 X97.869 Y150.602 E52.65457
G1 X96.834 Y151.69 E52.73099
